%
O0123 (HANDLE 6 SPLINE)

(POSTED USING CUSTOM POST PROCESSOR WRITTEN BY CONNOR PHILPOTT)
(COPYRIGHT C 2017 BY CONNOR PHILPOTT)

(MACHINE SETUP)
(COLCHESTER)
(T6M)
(COLCHESTER MILL-TURN LATHE - FANUC 21I CONTROL)

(PROGRAM TOOL DATA)
(T0202 D=8. CR=0. TAPER=90DEG - ZMIN=-5. - SPOT DRILL)
(T0505 D=0. CR=0. - ZMIN=-50.65 - GENERAL TURNING)
(T0909 D=0. CR=0. - ZMIN=-55.25 - GROOVE TURNING)
(T1111 D=0. CR=0. - ZMIN=-53.25 - GROOVE TURNING)
(T1212 D=6.8 CR=0. TAPER=118DEG - ZMIN=-55.25 - DRILL)

(START MAIN PROGRAM)

N1 G21

(TURNING FACE1)
N2 G0 G28 U0.
N3 G28 W0.
N4 M91
N5  
N6 G99 G18 
N7 T0505
N8 M8
N9 G97 S2500 M4 P11
N11 G0 Z0.
N12 X62.
N13 Z1.164
N14 X42.
N15 G1 X34.828 F0.12
N16 X32. Z-0.25
N17 X-0.8
N18 X2.028 Z1.164
N19 G0 X62.

(TURNING PROFILE1)
N22 G1 X62. Z1.154 F4.8
N23 G0 X34.335
N24 G1 X32.828 F0.12
N25 X30. Z-0.26
N26 Z-30.857
N27 G3 X31.982 Z-33.367 I-3.4 K-2.793
N28 G1 X34.81 Z-31.952
N29 G0 Z1.154
N30 X30.828
N31 G1 X28. Z-0.26
N32 Z-29.962
N33 G3 X31. Z-31.613 I-2.4 K-3.688
N34 G1 X33.828 Z-30.199
N35 G0 Z1.154
N36 X28.828
N37 G1 X26. Z-0.26
N38 Z-29.479
N39 G3 X29. Z-30.341 I-1.4 K-4.171
N40 G1 X31.828 Z-28.927
N41 G0 Z1.154
N42 X26.828
N43 G1 X24. Z-0.26
N44 Z-29.268
N45 G3 X27. Z-29.681 I-0.4 K-4.382
N46 G1 X29.828 Z-28.267
N47 G0 Z1.154
N48 X24.828
N49 G1 X22. Z-0.26
N50 Z-2.415
N51 Z-2.418
N52 Z-10.55
N53 Z-10.552
N54 Z-20.748
N55 Z-20.75
N56 Z-29.25
N57 X23.2
N58 G3 X25. Z-29.343 I0. K-4.4
N59 G1 X27.828 Z-27.929
N60 G0 Z1.154
N61 X22.828
N62 G1 X20. Z-0.26
N63 Z-0.838
N64 X21.18 Z-1.428
N65 G3 X22. Z-2.415 I-0.99 K-0.99
N66 G1 Z-2.418
N67 X24.828 Z-1.004
N68 X25.382
N69 G0 X34.81
N70 Z-46.518
N71 G1 X31.982 Z-47.933
N72 G3 X30.949 Z-49.736 I-4.391 K0.283
N73 G1 Z-50.65
N74 X31.98
N75 X34.808 Z-49.236
N76 G0 Z-48.321
N77 G1 X33.777
N78 X30.949 Z-49.736
N79 G3 X30.821 Z-49.85 I-3.874 K2.086
N80 G1 X29.897 Z-50.65
N81 X30.949
N82 X33.777 Z-49.236
N83 G0 Z-17.929
N84 X22.828
N85 G1 X20. Z-19.343
N86 Z-30.25
N87 X23.2
N88 G3 X30. Z-33.65 I0. K-3.4
N89 G1 Z-47.65
N90 G3 X29.089 Z-49.35 I-3.4 K0.
N91 G1 X27.588 Z-50.65
N92 X30.416 Z-49.236
N93 X32.182
N94 G0 Z-9.138
N95 X26.
N96 G1 X24.828
N97 X22. Z-10.552
N98 G3 X21.625 Z-11.25 I-1.4 K0.002
N99 G1 X20. Z-12.657
N100 Z-19.342
N101 G3 X20.98 Z-19.66 I-0.5 K-1.308
N102 G1 X21.18 Z-19.76
N103 G3 X22. Z-20.748 I-0.99 K-0.99
N104 G1 Z-20.75
N105 X24.828 Z-19.336
N106 G0 Z0.576
N107 X22.828
N108 G1 X20. Z-0.838
N109 Z-12.657
N110 X22.828 Z-11.243
N111 X23.794
N112 G0 X62.

(TURNING PROFILE2)
N115 G1 X62. Z1.154 F4.8
N116 G0 X22.335
N117 G1 X21.673 F0.12
N118 X18.844 Z-0.26
N119 X19.98 Z-0.828
N120 X22.808 Z0.586
N121 G0 Z1.047
N122 X19.059
N123 G1 X16.23 Z-0.367
N124 X19.766 Z-2.135
N125 G3 X19.982 Z-2.332 I-0.283 K-0.283
N126 G1 X22.81 Z-0.918
N127 X22.947
N128 G0 X62.
N129 Z0.
N130 M9
N131 G28 U0.
N132 G28 W0.
N133 M110
N134 M1

(TURNING PROFILE GROOVE1)
N135 G0 G28 U0.
N136 G28 W0.
N137 M91
N138  
N139 G99 G18 
N140 T0909
N141 M8
N142 G97 S1000 M4 P11
N144 G0 Z0.
N145 X62.
N146 Z-15.901
N147 X24.
N148 G1 X20. F0.03
N149 X13.8
N150 X24.
N151 G0 Z-16.767
N152 G1 X20.
N153 X13.8
N154 X23.606
N155 G0 X24.
N156 Z-17.632
N157 G1 X20.
N158 X13.8
N159 X19.346
N160 X20.
N161 X23.604
N162 G0 X24.
N163 Z-18.497
N164 G1 X20.
N165 X13.8
N166 X15.8 Z-17.497
N167 X22.915
N168 G0 X24.
N169 Z-19.362
N170 G1 X20.
N171 X19.453
N172 X20.
N173 X23.98
N174 G0 X23.982
N175 Z-13.845
N176 X23.98
N177 G1 X23.213
N178 X20. Z-15.036
N179 X19.453 Z-15.138
N180 G3 X18.2 Z-15.25 I-0.626 K1.688
N181 G1 X13.8
N182 Z-17.25
N183 X16.628 Z-15.836
N184 X23.219
N185 G0 Z-20.036
N186 G1 X19.453 Z-19.362
N187 G2 X18.2 Z-19.25 I-0.626 K-1.688
N188 G1 X13.8
N189 Z-17.25
N190 X16.628 Z-18.664
N191 X23.727
N192 G0 X24.002
N193 Z-13.207
N194 X23.98
N195 G1 X22.502
N196 X18.975 Z-14.15
N197 G3 X18.2 Z-14.25 I-0.387 K0.7
N198 G1 X11.8
N199 Z-17.25
N200 X14.628 Z-15.836
N201 X22.132
N202 G0 X23.982
N203 Z-21.293
N204 X23.98
N205 G1 X22.502
N206 X18.975 Z-20.35
N207 G2 X18.2 Z-20.25 I-0.387 K-0.7
N208 G1 X11.8
N209 Z-17.25
N210 X14.628 Z-18.664
N211 X15.8
N212 G0 X62.

(TURNING PROFILE GROOVE2)
N214 G97 S2500 M4 P11
N216 G1 X62. Z-51.25 F0.03
N217 G0 X36.
N218 G1 X32. F0.03
N219 X31.866
N220 X36.
N221 G0 Z-52.25
N222 G1 X32.
N223 X31.299
N224 X31.981
N225 X32.
N226 X35.866
N227 G0 X36.
N228 Z-53.25
N229 G1 X32.
N230 X30.197
N231 X31.852
N232 X32.
N233 X35.461
N234 G0 X36.
N235 Z-54.25
N236 G1 X32.
N237 X28.265
N238 X31.285
N239 X32.
N240 X34.761
N241 G0 X36.
N242 Z-55.25
N243 G1 X32.
N244 X22.4
N245 X30.2
N246 X32.
N247 X35.98
N248 G0 X35.982
N249 Z-49.836
N250 X35.98
N251 G1 X34.694
N252 X31.866 Z-51.25
N253 G3 X22.4 Z-55.25 I-4.733 K0.8
N254 G1 X26.4
N255 X35.98
N256 G0 X35.982
N257 Z-49.836
N258 X35.98
N259 G1 X32.658
N260 X29.83 Z-51.25
N261 G3 X22.4 Z-54.25 I-3.715 K0.8
N262 G1 X19.98
N263 X23.98
N264 G0 X62.
N265 Z0.
N266 M9
N267 G28 U0.
N268 G28 W0.
N269 M110
N270 M1

(SPOT DRILL)
N271 G0 G28 U0.
N272 G28 W0.
N273 M91
N274  
N275 G98 G18 
N276 T0202
N277 M8
N278 G97 S1500 M3 P11
N280 G0 Z10.
N281 X0.
N282 G80
N283 G0 Z5.
N284 G1 G83 Z-5. R-0.25 F0.1
N285 G80
N286 G0 Z10.
N287 M9
N288 G28 U0.
N289 G28 W0.
N290 M110
N291 M1

(PECK DRILL FOR TAP)
N292 G0 G28 U0.
N293 G28 W0.
N294 M91
N295  
N296 G98 G18 
N297 T1212
N298 M8
N299 G97 S1000 M3 P11
N301 G0 Z20.
N302 X0.
N304 G0 Z10.
N305 G1 G83 Z-55.25 R-5.25 Q20000 F0.07
N306 G80
N307 G0 Z20.
N308 M9
N309 G28 U0.
N310 G28 W0.
N311 M110
N312 M1

(PARTING)
N313 G0 G28 U0.
N314 G28 W0.
N315 M91
N316  
N317 G99 G18 
N318 T1111
N319 M8
N320 M34(PART CATCHER ON)
N321 G97 S2500 M3 P11
N323 G0 Z0.
N324 X52.
N325 Z-53.25
N326 X42.
N327 G1 X-1.6 F0.1
N328 X42.
N329 G0 X52.
N330 Z0.
N331 M9
N332 M35(PART CATCHER OFF)
N333 M5 P11

N334 G0 G28 U0.
N335 G28 W0.
N336 
N337  

N338 M111
N339 M30
%
