%
O0123 (HANDLE 6 SPLINE REV4)

(POSTED USING CUSTOM POST PROCESSOR WRITTEN BY CONNOR PHILPOTT)
(COPYRIGHT C 2017 BY CONNOR PHILPOTT)

(MACHINE SETUP)
(COLCHESTER)
(T6M)
(COLCHESTER MILL-TURN LATHE - FANUC 21I CONTROL)

(PROGRAM TOOL DATA)
(T0202 D=8. CR=0. TAPER=90DEG - ZMIN=-5. - SPOT DRILL)
(T0505 D=0. CR=0. - ZMIN=-50.65 - GENERAL TURNING)
(T0808 D=8. CR=0. - ZMIN=-25.25 - RIGHT HAND TAP)
(T0909 D=0. CR=0. - ZMIN=-55.25 - GROOVE TURNING)
(T1010 D=16. CR=0. ZMIN=-55.00 - FLAT MILLING)
(T1111 D=0. CR=0. - ZMIN=-53.25 - GROOVE TURNING)
(T1212 D=6.8 CR=0. TAPER=118DEG - ZMIN=-55.25 - DRILL)

(START MAIN PROGRAM)

N1 G21

(TURNING FACING)
N2 G0 G28 U0.
N3 G28 W0.
N4 M91
N5 
N6 G99 G18 
N7 T0505
N8 M8
N9 G97 S2500 M4 P11
N10 G0 Z0.
N11 X62.
N12 Z1.164
N13 X42.
N14 G1 X34.828 F0.12
N15 X32. Z-0.25
N16 X-0.8
N17 X2.028 Z1.164
N18 G0 X62.

(TURNING PROFILE)
N19 G1 X62. Z1.154 F4.8
N20 G0 X34.335
N21 G1 X32.828 F0.12
N22 X30. Z-0.26
N23 Z-30.857
N24 G3 X31.982 Z-33.367 I-3.4 K-2.793
N25 G1 X34.81 Z-31.952
N26 G0 Z1.154
N27 X30.828
N28 G1 X28. Z-0.26
N29 Z-29.962
N30 G3 X31. Z-31.613 I-2.4 K-3.688
N31 G1 X33.828 Z-30.199
N32 G0 Z1.154
N33 X28.828
N34 G1 X26. Z-0.26
N35 Z-29.479
N36 G3 X29. Z-30.341 I-1.4 K-4.171
N37 G1 X31.828 Z-28.927
N38 G0 Z1.154
N39 X26.828
N40 G1 X24. Z-0.26
N41 Z-29.268
N42 G3 X27. Z-29.681 I-0.4 K-4.382
N43 G1 X29.828 Z-28.267
N44 G0 Z1.154
N45 X24.828
N46 G1 X22. Z-0.26
N47 Z-2.415
N48 Z-2.418
N49 Z-10.55
N50 Z-10.552
N51 Z-20.748
N52 Z-20.75
N53 Z-29.25
N54 X23.2
N55 G3 X25. Z-29.343 I0. K-4.4
N56 G1 X27.828 Z-27.929
N57 G0 Z1.154
N58 X22.828
N59 G1 X20. Z-0.26
N60 Z-0.838
N61 X21.18 Z-1.428
N62 G3 X22. Z-2.415 I-0.99 K-0.99
N63 G1 Z-2.418
N64 X24.828 Z-1.004
N65 X25.382
N66 G0 X34.81
N67 Z-46.518
N68 G1 X31.982 Z-47.933
N69 G3 X30.949 Z-49.736 I-4.391 K0.283
N70 G1 Z-50.65
N71 X31.98
N72 X34.808 Z-49.236
N73 G0 Z-48.321
N74 G1 X33.777
N75 X30.949 Z-49.736
N76 G3 X30.821 Z-49.85 I-3.874 K2.086
N77 G1 X29.897 Z-50.65
N78 X30.949
N79 X33.777 Z-49.236
N80 G0 Z-17.929
N81 X22.828
N82 G1 X20. Z-19.343
N83 Z-30.25
N84 X23.2
N85 G3 X30. Z-33.65 I0. K-3.4
N86 G1 Z-47.65
N87 G3 X29.089 Z-49.35 I-3.4 K0.
N88 G1 X27.588 Z-50.65
N89 X30.416 Z-49.236
N90 X32.182
N91 G0 Z-9.138
N92 X26.
N93 G1 X24.828
N94 X22. Z-10.552
N95 G3 X21.625 Z-11.25 I-1.4 K0.002
N96 G1 X20. Z-12.657
N97 Z-19.342
N98 G3 X20.98 Z-19.66 I-0.5 K-1.308
N99 G1 X21.18 Z-19.76
N100 G3 X22. Z-20.748 I-0.99 K-0.99
N101 G1 Z-20.75
N102 X24.828 Z-19.336
N103 G0 Z0.576
N104 X22.828
N105 G1 X20. Z-0.838
N106 Z-12.657
N107 X22.828 Z-11.243
N108 X23.794
N109 G0 X62.

(TURNING PROFILE2)
N110 G1 X62. Z1.154 F4.8
N111 G0 X22.335
N112 G1 X21.673 F0.12
N113 X18.844 Z-0.26
N114 X19.98 Z-0.828
N115 X22.808 Z0.586
N116 G0 Z1.047
N117 X19.059
N118 G1 X16.23 Z-0.367
N119 X19.766 Z-2.135
N120 G3 X19.982 Z-2.332 I-0.283 K-0.283
N121 G1 X22.81 Z-0.918
N122 X22.947
N123 G0 X62.
N124 Z0.
N125 M9
N126 G28 U0.
N127 G28 W0.
N128 M110
N129 M1

(TURNING PROFILE GROOVE)
N130 G0 G28 U0.
N131 G28 W0.
N132 M91
N133 
N134 G99 G18 
N135 T0909
N136 M8
N137 G97 S1000 M4 P11
N138 G0 Z0.
N139 X50.
N140 Z-15.901
N141 X24.
N142 G1 X20. F0.03
N143 X13.8
N144 X24.
N145 G0 Z-16.767
N146 G1 X20.
N147 X13.8
N148 X23.606
N149 G0 X24.
N150 Z-17.632
N151 G1 X20.
N152 X13.8
N153 X19.346
N154 X20.
N155 X23.604
N156 G0 X24.
N157 Z-18.497
N158 G1 X20.
N159 X13.8
N160 X15.8 Z-17.497
N161 X22.915
N162 G0 X24.
N163 Z-19.362
N164 G1 X20.
N165 X19.453
N166 X20.
N167 X23.98
N168 G0 X23.982
N169 Z-13.845
N170 X23.98
N171 G1 X23.213
N172 X20. Z-15.036
N173 X19.453 Z-15.138
N174 G3 X18.2 Z-15.25 I-0.626 K1.688
N175 G1 X13.8
N176 Z-17.25
N177 X16.628 Z-15.836
N178 X23.219
N179 G0 Z-20.036
N180 G1 X19.453 Z-19.362
N181 G2 X18.2 Z-19.25 I-0.626 K-1.688
N182 G1 X13.8
N183 Z-17.25
N184 X16.628 Z-18.664
N185 X23.727
N186 G0 X24.002
N187 Z-13.207
N188 X23.98
N189 G1 X22.502
N190 X18.975 Z-14.15
N191 G3 X18.2 Z-14.25 I-0.387 K0.7
N192 G1 X11.8
N193 Z-17.25
N194 X14.628 Z-15.836
N195 X22.132
N196 G0 X23.982
N197 Z-21.293
N198 X23.98
N199 G1 X22.502
N200 X18.975 Z-20.35
N201 G2 X18.2 Z-20.25 I-0.387 K-0.7
N202 G1 X11.8
N203 Z-17.25
N204 X14.628 Z-18.664
N205 X15.8
N206 G0 X50.

(TURNING PROFILE GROOVE2)
N207 G1 X62. Z-51.25 F12.
N208 G0 X36.
N209 G1 X32. F0.03
N210 X31.866
N211 X36.
N212 G0 Z-52.25
N213 G1 X32.
N214 X31.299
N215 X31.981
N216 X32.
N217 X35.866
N218 G0 X36.
N219 Z-53.25
N220 G1 X32.
N221 X30.197
N222 X31.852
N223 X32.
N224 X35.461
N225 G0 X36.
N226 Z-54.25
N227 G1 X32.
N228 X28.265
N229 X31.285
N230 X32.
N231 X34.761
N232 G0 X36.
N233 Z-55.25
N234 G1 X32.
N235 X22.4
N236 X30.2
N237 X32.
N238 X35.98
N239 G0 X35.982
N240 Z-49.836
N241 X35.98
N242 G1 X34.694
N243 X31.866 Z-51.25
N244 G3 X22.4 Z-55.25 I-4.733 K0.8
N245 G1 X26.4
N246 X35.98
N247 G0 X35.982
N248 Z-49.836
N249 X35.98
N250 G1 X32.658
N251 X29.83 Z-51.25
N252 G3 X22.4 Z-54.25 I-3.715 K0.8
N253 G1 X19.98
N254 X23.98
N255 G0 X62.
N256 Z0.
N257 M9
N258 G28 U0.
N259 G28 W0.
N260 M110
N261 M1

(MILLING)
N262 G0 G28 U0.
N263 G28 W0.
N264 T1010
N265 M109
N266 G51.2 S1000 M14
N267 G0 Z20. X29.5
N268 M32
N269 G0 C0.
N270 M31
N271 Z5.
N272 G1 Z-55. F0.2
N273 Z5.
N274 M32
N275 G0 C60.
N276 M31
N277 G1 Z-55 F0.2
N278 Z5.
N279 M32
N280 G0 C120.
N281 M31
N282 G1 Z-55. F0.2
N283 Z5.
N284 M32
N285 G0 C180.
N286 M31
N287 G1 Z-55. F0.2
N288 Z5.
N289 M32
N290 G0 C240.
N291 M31
N292 G1 Z-55. F0.2
N293 Z5.
N294 M32
N295 G0 C300.
N296 M31
N297 G1 Z-55. F0.2
N298 Z5.
N299 M32
N300 G50.2
N301 N257 M9
N302 G28 U0.
N303 G28 W0.
N304 M110
N305 M1

(SPOT DRILL)
N306 G0 G28 U0.
N307 G28 W0.
N308 M91
N309 
N310 G98 G18 
N311 T0202
N312 M8
N313 G97 S1500 M3 P11
N314 G0 Z10.
N315 X0.
N316 G80
N317 G0 Z5.
N318 G83 Z-5. R-0.25 F30.
N319 G80
N320 G0 Z10.
N321 M9
N322 G28 U0.
N323 G28 W0.
N324 M110
N325 M1

(PECK DRILL)
N326 G0 G28 U0.
N327 G28 W0.
N328 M91
N329 
N330 G98 G18 
N331 T1212
N332 M8
N333 G97 S1000 M3 P11
N334 G0 Z20.
N335 X0.
N336 G0 Z10.
N337 G83 Z-55.25 R-5.25 Q20000 F25.
N338 G80
N339 G0 Z20.
N340 M9
N341 G28 U0.
N342 G28 W0.
N343 M110
N344 M1

(TAP)
N345 G0 G28 U0.
N346 G28 W0.
N347 M91
N348 
N349 G99 G18 
N350 T0808
N351 M8
N352 G0 Z10.
N353 X0.
N354 G0 Z5.
N355 G97 S850 M29 P11
N356 G84 Z-25.25 R-0.25 F1.25
N357 G80
N358 G0 Z10.
N359 M9
N360 G28 U0.
N361 G28 W0.
N362 M110
N363 M1

(PARTING)
N364 G0 G28 U0.
N365 G28 W0.
N366 M91
N367 
N368 G99 G18 
N369 T1111
N370 M8
N371 M34 (PART CATCHER ON)
N372 G97 S2500 M3 P11
N373 G0 Z0.
N374 X52.
N375 Z-53.25
N376 X42.
N377 G1 X-1.6 F0.1
N378 X42.
N379 G0 X52.
N380 Z0.
N381 M9
N382 M35 (PART CATCHER OFF)
N383 M5 P11

N384 G0 G28 U0.
N385 G28 W0.

N386 M30
%
