%
O0124 (GUIDE BAR REV6)

(POSTED USING CUSTOM POST PROCESSOR WRITTEN BY CONNOR PHILPOTT)
(COPYRIGHT C 2017 BY CONNOR PHILPOTT)

(MACHINE SETUP)
(COLCHESTER)
(T6M)
(COLCHESTER MILL-TURN LATHE - FANUC 21I CONTROL)

(PROGRAM TOOL DATA)
(T0303 D=0. CR=0. - ZMIN=-9.75 - THREAD TURNING)
(T0505 D=0. CR=0. - ZMIN=-18.565 - GENERAL TURNING)

(START MAIN PROGRAM)

N1 G21

(TURNING FACE)
N3 G0 G28 U0.
N5 G28 W0.
N7 M91
N9 
N11 G99 G18 
N13 T0505
N15 M8
N17 G97 S2500 M4 P11
N19 G0 Z0.
N21 X40.
N23 Z1.164
N25 X20.
N27 G1 X12.828 F0.12
N29 X10. Z-0.25
N31 X-0.8
N33 X2.028 Z1.164
N35 G0 X40.

(TURNING ROUGH)
N37 G1 X40. Z1.154 F4.8
N39 G0 X12.335
N41 G1 X10.948 F0.12
N43 X8.119 Z-0.26
N45 Z-1.19
N47 G3 X8.5 Z-1.65 I-0.46 K-0.46
N49 G1 Z-17.65
N51 G3 X8.326 Z-17.975 I-0.65 K0.
N53 G1 X8.297 Z-18.
N55 X9.2
N57 G3 X9.981 Z-18.13 I0. K-0.65
N59 G1 X12.809 Z-16.716
N61 G0 Z1.154
N63 X9.087
N65 G1 X6.258 Z-0.26
N67 X8.119 Z-1.19
N69 G3 X8.5 Z-1.65 I-0.46 K-0.46
N71 G1 X11.328 Z-0.236
N73 X11.681
N75 G0 X40.

(TURNING FINISH)
N77 G1 X40. Z1.154 F4.8
N79 G0 X12.335
N81 G1 X11.208 F0.06
N83 X8.38 Z-0.26
N85 X9.18 Z-0.66
N87 G3 X9.982 Z-1.49 I-0.99 K-0.99
N89 G1 X12.81 Z-0.076
N91 G0 Z1.047
N93 X8.594
N95 G1 X5.766 Z-0.367
N97 X7.766 Z-1.367
N99 G3 X8. Z-1.65 I-0.283 K-0.283
N101 G1 Z-17.65
N103 G3 X7.893 Z-17.85 I-0.4 K0.
N105 G1 X7.6 Z-18.104
N107 Z-18.25
N109 X9.2
N111 G3 X9.982 Z-18.565 I0. K-0.4
N113 G1 X12.81 Z-17.15
N115 X12.947
N117 G0 X40.
N119 Z0.
N121 M9
N123 G28 U0.
N125 G28 W0.
N127 M110
N129 M1

(TURNING THREAD)
N131 G0 G28 U0.
N133 G28 W0.
N135 M91
N137 
N139 G99 G18 
N141 T0303
N143 M8
N145 G97 S1000 M3 P11
N147 G0 Z0.
N149 X40.
N151 Z0.75
N153 X20.
N155 G1 X7.882 F1.25
N157 G33 Z-9.75 F1.25
N159 X9.65 F1.25
N161 G0 X20.
N163 Z0.75
N165 G1 X7.764 F1.25
N167 G33 Z-9.75 F1.25
N169 X9.65 F1.25
N171 G0 X20.
N173 Z0.75
N175 G1 X7.646 F1.25
N177 G33 Z-9.75 F1.25
N179 X9.65 F1.25
N181 G0 X20.
N183 Z0.75
N185 G1 X7.529 F1.25
N187 G33 Z-9.75 F1.25
N189 X9.65 F1.25
N191 G0 X20.
N193 Z0.75
N195 G1 X7.411 F1.25
N197 G33 Z-9.75 F1.25
N199 X9.65 F1.25
N201 G0 X20.
N203 Z0.75
N205 G1 X7.293 F1.25
N207 G33 Z-9.75 F1.25
N209 X9.65 F1.25
N211 G0 X20.
N213 Z0.75
N215 G1 X7.175 F1.25
N217 G33 Z-9.75 F1.25
N219 X9.65 F1.25
N221 G0 X20.
N223 Z0.75
N225 G1 X7.057 F1.25
N227 G33 Z-9.75 F1.25
N229 X9.65 F1.25
N231 G0 X20.
N233 Z0.75
N235 G1 X6.939 F1.25
N237 G33 Z-9.75 F1.25
N239 X9.65 F1.25
N241 G0 X20.
N243 Z0.75
N245 G1 X6.821 F1.25
N247 G33 Z-9.75 F1.25
N249 X9.65 F1.25
N251 G0 X20.
N253 Z0.75
N255 G1 X6.704 F1.25
N257 G33 Z-9.75 F1.25
N259 X9.65 F1.25
N261 G0 X20.
N263 Z0.75
N265 G1 X6.586 F1.25
N267 G33 Z-9.75 F1.25
N269 X9.65 F1.25
N271 G0 X20.
N273 Z0.75
N275 G1 X6.468 F1.25
N277 G33 Z-9.75 F1.25
N279 X9.65 F1.25
N281 G0 X20.
N283 Z0.75
N285 G1 X6.35 F1.25
N287 G33 Z-9.75 F1.25
N289 X9.65 F1.25
N291 G0 X20.
N293 Z0.75
N295 G1 X6.35 F1.25
N297 G33 Z-9.75 F1.25
N299 X9.65 F1.25
N301 G0 X20.
N303 X40.
N305 Z0.
N307 M5 P11
N309 M9

N311 G0 G28 U0.
N313 G28 W0.
N315 
N317 

N319 
N321 M30
%
