%
O0124 (GUIDE BAR REV3)

(POSTED USING CUSTOM POST PROCESSOR WRITTEN BY CONNOR PHILPOTT)
(COPYRIGHT C 2017 BY CONNOR PHILPOTT)

(MACHINE SETUP)
(COLCHESTER)
(T6M)
(COLCHESTER MILL-TURN LATHE - FANUC 21I CONTROL)

(PROGRAM TOOL DATA)
(T0303 D=0. CR=0. - ZMIN=-8.833 - THREAD TURNING)
(T0505 D=0. CR=0. - ZMIN=-18.565 - GENERAL TURNING)

(START MAIN PROGRAM)

N1 G21

(TURNING FACE9)
N2 G0 G28 U0.
N3 G28 W0.
N4 M91
N5 
N6 G99 G18 
N7 T0505
N8 M8
N9 G97 S2500 M4 P11
N11 G0 Z0.
N12 X40.
N13 Z1.164
N14 X20.
N15 G1 X12.828 F0.12
N16 X10. Z-0.25
N17 X-0.8
N18 X2.028 Z1.164
N19 G0 X40.

(TURNING PROFILE1)
N22 G1 X40. Z1.154 F0.12
N23 G0 X12.335
N24 G1 X11.208 F0.12
N25 X8.38 Z-0.26
N26 X9.18 Z-0.66
N27 G3 X9.982 Z-1.49 I-0.99 K-0.99
N28 G1 X12.81 Z-0.076
N29 G0 Z1.047
N30 X8.594
N31 G1 X5.766 Z-0.367
N32 X7.766 Z-1.367
N33 G3 X8. Z-1.65 I-0.283 K-0.283
N34 G1 Z-17.65
N35 G3 X7.893 Z-17.85 I-0.4 K0.
N36 G1 X7.7 Z-18.017
N37 Z-18.25
N38 X9.2
N39 G3 X9.982 Z-18.565 I0. K-0.4
N40 G1 X12.81 Z-17.15
N41 X12.947
N42 G0 X40.
N43 Z0.
N44 M9
N45 G28 U0.
N46 G28 W0.
N47 M110
N48 M1

(TURNING THREAD1)
N49 G0 G28 U0.
N50 G28 W0.
N51 M91
N52  
N53 G99 G18 
N54 T0303
N55 M8
N56 G97 S1000 M3 P11
N58 G0 Z0.
N59 X40.
N60 Z0.75
N61 X20.
N62 G1 X7.587 F1.25
N63 G33 Z-8.044 F1.25
N64 X9.167 Z-8.833 F1.25
N65 G0 X20.
N66 Z0.75
N67 G1 X7.175 F1.25
N68 G33 Z-7.838 F1.25
N69 X9.167 Z-8.833 F1.25
N70 G0 X20.
N71 Z0.75
N72 G1 X6.763 F1.25
N73 G33 Z-7.631 F1.25
N74 X9.167 Z-8.833 F1.25
N75 G0 X20.
N76 Z0.75
N77 G1 X6.35 F1.25
N78 G33 Z-7.425 F1.25
N79 X9.167 Z-8.833 F1.25
N80 G0 X20.
N81 X40.
N82 Z0.
N83 M5 P11
N84 M9

N85 G0 G28 U0.
N86 G28 W0.
N87 
N88  

N89 M111
N90 M30
%
