%
O0124 (GUIDE BAR REV5)

(POSTED USING CUSTOM POST PROCESSOR WRITTEN BY CONNOR PHILPOTT)
(COPYRIGHT C 2017 BY CONNOR PHILPOTT)

(MACHINE SETUP)
(COLCHESTER)
(T6M)
(COLCHESTER MILL-TURN LATHE - FANUC 21I CONTROL)

(PROGRAM TOOL DATA)
(T0303 D=0. CR=0. - ZMIN=-9.75 - THREAD TURNING)
(T0505 D=0. CR=0. - ZMIN=-18.565 - GENERAL TURNING)

(START MAIN PROGRAM)

N1 G21

(TURNING FACE)
N2 G0 G28 U0.
N3 G28 W0.
N4 M91
N5  
N6 G99 G18 
N7 T0505
N8 M8
N9 G97 S2500 M4 P11
N11 G0 Z0.
N12 X40.
N13 Z1.164
N14 X20.
N15 G1 X12.828 F0.12
N16 X10. Z-0.25
N17 X-0.8
N18 X2.028 Z1.164
N19 G0 X40.

(TURNING ROUGHING)
N22 G1 X40. Z1.154 F4.8
N23 G0 X12.335
N24 G1 X11.828 F0.12
N25 X9. Z-0.26
N26 Z-18.
N27 X9.2
N28 G3 X9.981 Z-18.13 I0. K-0.65
N29 G1 X12.809 Z-16.716
N30 G0 Z1.154
N31 X10.828
N32 G1 X8. Z-0.26
N33 Z-1.131
N34 X8.119 Z-1.19
N35 G3 X8.5 Z-1.65 I-0.46 K-0.46
N36 G1 Z-17.65
N37 G3 X8.326 Z-17.975 I-0.65 K0.
N38 G1 X8.297 Z-18.
N39 X9.2
N40 G3 X9.5 Z-18.018 I0. K-0.65
N41 G1 X12.328 Z-16.603
N42 G0 Z1.154
N43 X9.948
N44 G1 X7.119 Z-0.26
N45 Z-0.69
N46 X8.119 Z-1.19
N47 G3 X8.5 Z-1.648 I-0.46 K-0.46
N48 G1 X11.328 Z-0.234
N49 G0 Z1.154
N50 X9.087
N51 G1 X6.258 Z-0.26
N52 X7.619 Z-0.94
N53 X10.448 Z0.474
N54 G0 X40.

(TURNING FINISH)
N57 G1 X40. Z1.154 F4.8
N58 G0 X12.335
N59 G1 X10.828 F0.06
N60 X8. Z-0.26
N61 Z-1.649
N62 Z-1.65
N63 Z-17.65
N64 G3 X7.9 Z-17.844 I-0.4 K0.
N65 G1 Z-18.25
N66 X9.2
N67 G3 X9.982 Z-18.565 I0. K-0.4
N68 G1 X12.81 Z-17.15
N69 G0 Z1.154
N70 X9.711
N71 G1 X6.883 Z-0.26
N72 Z-0.926
N73 X7.766 Z-1.367
N74 G3 X8. Z-1.65 I-0.283 K-0.283
N75 G1 Z-17.65
N76 G3 X7.893 Z-17.85 I-0.4 K0.
N77 G1 X7.6 Z-18.104
N78 Z-18.25
N79 X9.
N80 X11.828 Z-16.836
N81 G0 Z1.154
N82 X8.594
N83 G1 X5.766 Z-0.26
N84 Z-0.367
N85 X7.766 Z-1.367
N86 G3 X7.883 Z-1.442 I-0.283 K-0.283
N87 G1 X10.711 Z-0.027
N88 X10.728
N89 G0 Z-16.429
N90 G1 X7.9 Z-17.844
N91 X7.893 Z-17.85
N92 X7.6 Z-18.104
N93 Z-18.25
N94 X8.9
N95 X11.728 Z-16.836
N96 X12.34
N97 G0 X40.
N98 Z0.
N99 M9
N100 G28 U0.
N101 G28 W0.
N102 M110
N103 M1

(TURNING THREAD)
N104 G0 G28 U0.
N105 G28 W0.
N106 M91
N107  
N108 G99 G18 
N109 T0303
N110 M8
N111 G97 S1000 M3 P11
N113 G0 Z0.
N114 X40.
N115 Z0.75
N116 X20.
N117 G1 X7.882 F1.25
N118 G33 Z-9.75 F1.25
N119 X9.65 F1.25
N120 G0 X20.
N121 Z0.75
N122 G1 X7.764 F1.25
N123 G33 Z-9.75 F1.25
N124 X9.65 F1.25
N125 G0 X20.
N126 Z0.75
N127 G1 X7.646 F1.25
N128 G33 Z-9.75 F1.25
N129 X9.65 F1.25
N130 G0 X20.
N131 Z0.75
N132 G1 X7.529 F1.25
N133 G33 Z-9.75 F1.25
N134 X9.65 F1.25
N135 G0 X20.
N136 Z0.75
N137 G1 X7.411 F1.25
N138 G33 Z-9.75 F1.25
N139 X9.65 F1.25
N140 G0 X20.
N141 Z0.75
N142 G1 X7.293 F1.25
N143 G33 Z-9.75 F1.25
N144 X9.65 F1.25
N145 G0 X20.
N146 Z0.75
N147 G1 X7.175 F1.25
N148 G33 Z-9.75 F1.25
N149 X9.65 F1.25
N150 G0 X20.
N151 Z0.75
N152 G1 X7.057 F1.25
N153 G33 Z-9.75 F1.25
N154 X9.65 F1.25
N155 G0 X20.
N156 Z0.75
N157 G1 X6.939 F1.25
N158 G33 Z-9.75 F1.25
N159 X9.65 F1.25
N160 G0 X20.
N161 Z0.75
N162 G1 X6.821 F1.25
N163 G33 Z-9.75 F1.25
N164 X9.65 F1.25
N165 G0 X20.
N166 Z0.75
N167 G1 X6.704 F1.25
N168 G33 Z-9.75 F1.25
N169 X9.65 F1.25
N170 G0 X20.
N171 Z0.75
N172 G1 X6.586 F1.25
N173 G33 Z-9.75 F1.25
N174 X9.65 F1.25
N175 G0 X20.
N176 Z0.75
N177 G1 X6.468 F1.25
N178 G33 Z-9.75 F1.25
N179 X9.65 F1.25
N180 G0 X20.
N181 Z0.75
N182 G1 X6.35 F1.25
N183 G33 Z-9.75 F1.25
N184 X9.65 F1.25
N185 G0 X20.
N186 Z0.75
N187 G1 X6.35 F1.25
N188 G33 Z-9.75 F1.25
N189 X9.65 F1.25
N190 G0 X20.
N191 X40.
N192 Z0.
N193 M5 P11
N194 M9

N195 G0 G28 U0.
N196 G28 W0.
N197 
N198  

N199
N200 M30
%
