%
O0124 (GUIDE BAR REV4)

N100 (POSTED USING CUSTOM POST PROCESSOR WRITTEN BY CONNOR PHILPOTT)
N102 (COPYRIGHT C 2017 BY CONNOR PHILPOTT)

N104 (MACHINE SETUP)
N106 (COLCHESTER)
N108 (T6M)
N110 (COLCHESTER MILL-TURN LATHE - FANUC 21I CONTROL)

N112 (PROGRAM TOOL DATA)
N114 (T0303 D=0. CR=0. - ZMIN=-8.833 - THREAD TURNING)
N116 (T0505 D=0. CR=0. - ZMIN=-18.565 - GENERAL TURNING)

N118 (START MAIN PROGRAM)

N120 G21

N122 (TURNING FACE9)
N124 G0 G28 U0.
N126 G28 W0.
N128 M91
N130 
N132 G99 G18 
N134 T0505
N136 M8
N138 G97 S2500 M4 P11
N140 G0 Z0.
N142 X40.
N144 Z1.164
N146 X20.
N148 G1 X12.828 F0.12
N150 X10. Z-0.25
N152 X-0.8
N154 X2.028 Z1.164
N156 G0 X40.

N158 (TURNING PROFILE1)
N160 G1 X40. Z1.154 F0.12
N162 G0 X12.335
N164 G1 X11.208 F0.12
N166 X8.38 Z-0.26
N168 X9.18 Z-0.66
N170 G3 X9.982 Z-1.49 I-0.99 K-0.99
N172 G1 X12.81 Z-0.076
N174 G0 Z1.047
N176 X8.594
N178 G1 X5.766 Z-0.367
N180 X7.766 Z-1.367
N182 G3 X8. Z-1.65 I-0.283 K-0.283
N184 G1 Z-17.65
N186 G3 X7.893 Z-17.85 I-0.4 K0.
N188 G1 X7.7 Z-18.017
N190 Z-18.25
N192 X9.2
N194 G3 X9.982 Z-18.565 I0. K-0.4
N196 G1 X12.81 Z-17.15
N198 X12.947
N200 G0 X40.
N202 Z0.
N204 M9
N206 G28 U0.
N208 G28 W0.
N210 M110
N212 M1

N214 (TURNING THREAD1)
N216 G0 G28 U0.
N218 G28 W0.
N220 M91
N222 
N224 G99 G18
N226 T0303
N228 M8
N230 G97 S1000 M3 P11
N232 G0 Z0.
N234 X40.
N236 Z0.75
N238 X20.
N240 G1 X7.835 F1.25
N242 G33 Z-9.75 F1.25
N244 X9.65 F1.25
N246 G0 X20.
N248 Z0.75
N250 G1 X7.67 F1.25
N252 G33 Z-9.75 F1.25
N254 X9.65 F1.25
N256 G0 X20.
N258 Z0.75
N260 G1 X7.505 F1.25
N262 G33 Z-9.75 F1.25
N264 X9.65 F1.25
N266 G0 X20.
N268 Z0.75
N270 G1 X7.34 F1.25
N272 G33 Z-9.75 F1.25
N274 X9.65 F1.25
N276 G0 X20.
N278 Z0.75
N280 G1 X7.175 F1.25
N282 G33 Z-9.75 F1.25
N284 X9.65 F1.25
N286 G0 X20.
N288 Z0.75
N290 G1 X7.01 F1.25
N292 G33 Z-9.75 F1.25
N294 X9.65 F1.25
N296 G0 X20.
N298 Z0.75
N300 G1 X6.845 F1.25
N302 G33 Z-9.75 F1.25
N304 X9.65 F1.25
N306 G0 X20.
N308 Z0.75
N310 G1 X6.68 F1.25
N312 G33 Z-9.75 F1.25
N314 X9.65 F1.25
N316 G0 X20.
N318 Z0.75
N320 G1 X6.515 F1.25
N322 G33 Z-9.75 F1.25
N324 X9.65 F1.25
N326 G0 X20.
N328 Z0.75
N330 G1 X6.4 F1.25
N332 G33 Z-9.75 F1.25
N334 X9.65 F1.25
N336 G0 X20.
N338 Z0.75
N340 G1 X6.4 F1.25
N342 G33 Z-9.75 F1.25
N344 X9.65 F1.25
N346 G0 X20.
N348 X40.
N350 Z0.
N352 M5 P11
N354 M9

N356 G0 G28 U0.
N358 G28 W0.
N360 
N362 

N364 
N366 M30
%
