%
O0101 (SNOWMAN)

(72.2MM Stick Out)

(POSTED USING CUSTOM POST PROCESSOR WRITTEN BY CONNOR PHILPOTT)
(COPYRIGHT C 2017 BY CONNOR PHILPOTT)

(MACHINE SETUP)
(COLCHESTER)
(T6M)
(COLCHESTER MILL-TURN LATHE - FANUC 21I CONTROL)

(PROGRAM TOOL DATA)
G21

(TURNING FACE1)
G0 G28 U0.
G28 W0.
M91

G95 G18 M110
T0707
M8
G97 S2500 M4 P11
G0 Z0.
X55.4
Z1.164
X35.4
G1 X28.228 F0.12
X25.4 Z-0.25
X-0.8
X2.028 Z1.164
G0 X55.4
Z0.
M9
G28 U0.
G28 W0.
M1
M1

(TURNING PROFILE GROOVE2)
G0 G28 U0.
G28 W0.
M91

G95 G18 M110
T0909
M8
G97 S1000 M4 P11
G0 Z0.
X55.4
Z-16.96
X29.4
G1 X25.4 F0.06
X21.319
X29.4
G0 Z-17.946
G1 X25.4
X20.461
X25.381
X25.4
X28.88
G0 X29.4
Z-18.932
G1 X25.4
X14.372
X23.806
X25.4
X28.877
G0 X29.4
Z-19.918
G1 X25.4
X14.196
X20.455
X22.455 Z-18.918
X26.209
G0 X29.4
Z-20.904
G1 X25.4
X13.898
X18.84
X20.84 Z-19.904
X25.844
G0 X29.4
Z-21.89
G1 X25.4
X13.466
X14.212
X16.212 Z-20.89
X21.271
G0 X29.4
Z-22.876
G1 X25.4
X12.894
X13.92
X15.92 Z-21.876
X25.319
G0 Z-16.96
G1 X21.319
G3 X18.44 Z-18.36 I-1.439 K0.04
G1 X14.42
X14.403 Z-18.687
G3 X14.399 Z-18.73 I-1.04 K0.027
G1 X14.311 Z-19.384
G3 X14.304 Z-19.427 I-1.038 K0.07
G1 X14.163 Z-20.071
G3 X14.151 Z-20.115 I-1.034 K0.113
G1 X13.958 Z-20.748
G3 X13.942 Z-20.793 I-1.028 K0.157
G1 X13.7 Z-21.405
G3 X13.681 Z-21.449 I-1.02 K0.202
G1 X13.388 Z-22.051
G3 X13.364 Z-22.095 I-1.011 K0.246
G1 X13.02 Z-22.686
G3 X12.993 Z-22.731 I-0.999 K0.29
G1 X12.894 Z-22.876
X15.722 Z-21.461
X23.316
G0 Z-16.96
G1 X19.316
G3 X18.44 Z-17.36 I-0.438 K0.04
G1 X12.438
Z-17.995
Z-17.996
X12.404 Z-18.661
X12.403 Z-18.663
X12.316 Z-19.317
X12.315 Z-19.319
X12.175 Z-19.962
X12.174 Z-19.964
X11.981 Z-20.597
X11.98 Z-20.599
X11.738 Z-21.211
Z-21.212
X11.445 Z-21.814
X11.444 Z-21.816
X11.1 Z-22.407
X11.099 Z-22.409
X10.782 Z-22.876
X13.61 Z-21.461
X14.631
G0 X55.4
Z0.
M9
G28 U0.
G28 W0.
M1
M1

(TURNING PROFILE2)
G0 G28 U0.
G28 W0.
M91

G95 G18 M110
T0707
M8
G97 S2500 M4 P11
G0 Z0.
X55.4
Z1.154
X27.735
G1 X27.228 F0.12
X24.4 Z-0.26
Z-45.32
G3 X25.381 Z-47.178 I-12.6 K-4.32
G1 X28.209 Z-45.763
G0 Z1.154
X26.228
G1 X23.4 Z-0.26
Z-44.071
G3 X24.9 Z-46.133 I-12.1 K-5.569
G1 X27.728 Z-44.719
G0 Z1.154
X25.228
G1 X22.4 Z-0.26
Z-43.093
G3 X23.9 Z-44.65 I-11.6 K-6.547
G1 X26.728 Z-43.236
G0 Z1.154
X24.228
G1 X21.4 Z-0.26
Z-42.277
G3 X22.9 Z-43.557 I-11.1 K-7.363
G1 X25.728 Z-42.143
G0 Z1.154
X23.228
G1 X20.4 Z-0.26
Z-41.574
G3 X21.9 Z-42.669 I-10.6 K-8.066
G1 X24.728 Z-41.254
G0 Z1.154
X22.228
G1 X19.4 Z-0.26
Z-10.408
G3 X20.32 Z-11.4 I-0.84 K-0.992
G1 Z-13.36
G3 X19.4 Z-14.352 I-1.3 K0.
G1 Z-29.307
G3 X20.32 Z-32.39 I-10.1 K-3.083
X19.4 Z-35.473 I-10.56 K0.
G1 Z-40.956
G3 X20.9 Z-41.913 I-10.1 K-8.684
G1 X23.728 Z-40.499
G0 Z1.154
X21.228
G1 X18.4 Z-0.26
Z-10.145
G3 X19.9 Z-10.692 I-0.34 K-1.255
G1 X22.728 Z-9.277
G0 Z1.154
X20.228
G1 X17.4 Z-0.26
Z-10.1
X17.72
G3 X18.9 Z-10.242 I0. K-1.3
G1 X21.728 Z-8.827
G0 Z1.154
X19.228
G1 X16.4 Z-0.26
Z-10.1
X17.72
G3 X17.9 Z-10.103 I0. K-1.3
G1 X20.728 Z-8.689
G0 Z1.154
X18.228
G1 X15.4 Z-0.26
Z-10.1
X16.9
X19.728 Z-8.686
G0 Z1.154
X17.653
G1 X14.825 Z-0.26
Z-10.1
X15.9
X18.728 Z-8.686
G0 Z1.154
X17.11
G1 X17.093
X14.264 Z-0.26
G3 X14.8 Z-1.05 I-1.032 K-0.79
G1 Z-10.1
X15.325
X18.153 Z-8.686
X20.52
G0 Z-14.352
G1 X19.4
X19.391 Z-14.356
X18.4 Z-14.772
Z-27.991
G3 X19.9 Z-30.294 I-9.6 K-4.399
G1 X22.728 Z-28.88
G0 Z-14.772
G1 X18.4
X17.4 Z-15.191
Z-27.032
G3 X18.9 Z-28.583 I-9.1 K-5.358
G1 X21.728 Z-27.169
G0 Z-15.191
G1 X17.4
X16.4 Z-15.611
Z-26.262
G3 X17.9 Z-27.482 I-8.6 K-6.128
G1 X20.728 Z-26.067
G0 Z-15.611
G1 X16.4
X15.4 Z-16.03
Z-25.615
G3 X16.9 Z-26.629 I-8.1 K-6.775
G1 X19.728 Z-25.215
G0 Z-16.03
G1 X15.4
X14.4 Z-16.45
Z-25.058
G3 X15.9 Z-25.925 I-7.6 K-7.332
G1 X18.728 Z-24.511
G0 Z-16.45
G1 X14.4
X13.4 Z-16.869
Z-24.573
G3 X14.9 Z-25.327 I-7.1 K-7.817
G1 X17.728 Z-23.912
G0 Z-16.869
G1 X13.4
X13.001 Z-17.037
X12.961 Z-17.167
G3 X12.947 Z-17.206 I-0.89 K0.136
G1 X12.706 Z-17.817
G3 X12.689 Z-17.856 I-0.883 K0.174
G1 X12.4 Z-18.449
Z-24.146
G3 X13.9 Z-24.808 I-6.6 K-8.243
G1 X16.728 Z-23.393
G0 Z-17.035
G1 X15.228
X12.4 Z-18.449
X12.396 Z-18.457
G3 X12.375 Z-18.496 I-0.874 K0.213
G1 X12.032 Z-19.087
G3 X12.007 Z-19.125 I-0.864 K0.251
G1 X11.612 Z-19.707
G3 X11.582 Z-19.748 I-0.852 K0.289
G1 X11.4 Z-19.979
Z-23.77
G3 X12.9 Z-24.353 I-6.1 K-8.62
G1 X15.728 Z-22.939
G0 Z-18.564
G1 X14.228
X11.4 Z-19.979
X11.045 Z-20.427
G3 X11.008 Z-20.471 I-0.837 K0.331
G1 X10.4 Z-21.134
Z-23.437
G3 X11.9 Z-23.952 I-5.6 K-8.953
G1 X14.728 Z-22.538
G0 Z-19.72
G1 X13.228
X10.4 Z-21.134
X10.398 Z-21.136
G3 X10.356 Z-21.179 I-0.818 K0.375
G1 X9.675 Z-21.829
G3 X9.629 Z-21.87 I-0.797 K0.418
G1 X9.4 Z-22.063
Z-23.143
G3 X10.9 Z-23.598 I-5.1 K-9.247
G1 X13.728 Z-22.184
G0 Z-20.649
G1 X12.228
X9.4 Z-22.063
X8.89 Z-22.493
Z-23.007
G3 X9.9 Z-23.285 I-4.845 K-9.383
G1 X12.728 Z-21.871
G0 Z-21.079
G1 X11.719
X8.89 Z-22.493
X8.874 Z-22.506
G3 X8.825 Z-22.545 I-0.774 K0.459
G1 X8.38 Z-22.88
G3 X9.39 Z-23.14 I-4.59 K-9.51
G1 X12.219 Z-21.726
X14.257
G0 X22.228
Z-34.059
G1 X19.4 Z-35.473
G3 X18.4 Z-36.789 I-10.1 K3.083
G1 Z-40.406
G3 X19.9 Z-41.255 I-9.6 K-9.234
G1 X22.728 Z-39.841
G0 Z-35.375
G1 X21.228
X18.4 Z-36.789
G3 X17.4 Z-37.748 I-9.6 K4.399
G1 Z-39.913
G3 X18.9 Z-40.673 I-9.1 K-9.727
G1 X21.728 Z-39.259
G0 Z-36.333
G1 X20.228
X17.4 Z-37.748
G3 X16.45 Z-38.483 I-9.1 K5.358
G1 Z-39.49
G3 X17.9 Z-40.153 I-8.625 K-10.15
G1 X20.728 Z-38.739
G0 Z-37.068
G1 X19.279
X16.45 Z-38.483
G3 X15.501 Z-39.105 I-8.625 K6.093
X16.95 Z-39.707 I-8.15 K-10.535
G1 X19.779 Z-38.293
X21.371
G0 X28.209
Z-50.688
G1 X25.381 Z-52.102
G3 X24.4 Z-53.96 I-13.09 K2.462
G1 Z-60.61
X25.38
X28.208 Z-59.196
G0 Z-52.546
G1 X27.228
X24.4 Z-53.96
G3 X23.4 Z-55.209 I-12.6 K4.32
G1 Z-60.61
X24.4
X27.228 Z-59.196
G0 Z-53.795
G1 X26.228
X23.4 Z-55.209
G3 X22.4 Z-56.187 I-12.1 K5.569
G1 Z-60.61
X23.4
X26.228 Z-59.196
G0 Z-54.773
G1 X25.228
X22.4 Z-56.187
G3 X21.4 Z-57.003 I-11.6 K6.547
G1 Z-60.61
X22.4
X25.228 Z-59.196
G0 Z-55.589
G1 X24.228
X21.4 Z-57.003
G3 X20.4 Z-57.706 I-11.1 K7.363
G1 Z-60.61
X21.4
X24.228 Z-59.196
G0 Z-56.292
G1 X23.228
X20.4 Z-57.706
G3 X19.4 Z-58.324 I-10.6 K8.066
G1 Z-60.61
X20.4
X23.228 Z-59.196
G0 Z-56.91
G1 X22.228
X19.4 Z-58.324
G3 X18.4 Z-58.874 I-10.1 K8.684
G1 Z-60.61
X19.4
X22.228 Z-59.196
G0 Z-57.46
G1 X21.228
X18.4 Z-58.874
G3 X17.626 Z-59.26 I-9.6 K9.234
X17.538 Z-59.299 I-0.622 K0.65
G1 X17.4 Z-59.357
Z-60.61
X18.4
X21.228 Z-59.196
G0 Z-59.357
G1 X17.4
X16.4 Z-59.777
Z-60.61
X17.4
X20.228 Z-59.196
G0 Z-59.777
G1 X16.4
X15.407 Z-60.193
Z-60.61
X16.4
X19.228 Z-59.196
G0 Z-60.193
G1 X15.407
X14.414 Z-60.61
X15.407
X18.235 Z-59.196
X21.853
G0 X25.581
Z1.155
X15.648
G1 X15.268
X12.44 Z-0.259
G3 X13.8 Z-1.05 I-0.12 K-0.791
G1 Z-10.6
X17.72
G3 X19.32 Z-11.4 I0. K-0.8
G1 Z-13.36
G3 X18.748 Z-13.973 I-0.8 K0.
G1 X12.069 Z-16.775
X11.972 Z-17.092
G3 X11.966 Z-17.109 I-0.395 K0.06
G1 X11.725 Z-17.721
G3 X11.717 Z-17.738 I-0.392 K0.078
G1 X11.424 Z-18.339
G3 X11.415 Z-18.356 I-0.389 K0.095
G1 X11.071 Z-18.948
G3 X11.061 Z-18.965 I-0.384 K0.112
G1 X10.666 Z-19.546
G3 X10.652 Z-19.564 I-0.379 K0.129
G1 X10.115 Z-20.243
G3 X10.099 Z-20.263 I-0.372 K0.147
G1 X9.489 Z-20.927
G3 X9.471 Z-20.947 I-0.364 K0.167
G1 X8.789 Z-21.597
G3 X8.768 Z-21.615 I-0.354 K0.186
G1 X8.014 Z-22.251
G3 X7.992 Z-22.268 I-0.344 K0.204
G1 X7.166 Z-22.89
G3 X7.143 Z-22.906 I-0.333 K0.221
G1 X6.871 Z-23.09
G3 X19.32 Z-32.39 I-3.836 K-9.3
X14.037 Z-39.185 I-10.06 K0.
X16.934 Z-58.899 I-7.419 K-10.455
X16.895 Z-58.916 I-0.277 K0.289
G1 X12.858 Z-60.61
X19.082
G0 X55.4
Z0.
M9
G28 U0.
G28 W0.
M1
M1

(TURNING PART1)
G0 G28 U0.
G28 W0.
M91

G95 G18 M110
T1111
M8
M34 (PART CATCHER ON)
G97 S2500 M3 P11
G0 Z0.
X55.4
Z-61.21
X35.4
G1 X-1.6 F0.1
X35.4
G0 X55.4
Z0.
M9
M35 (PART CATCHER OFF)
M5 P11

G0 G28 U0.
G28 W0.
M110


M30
%
