%
O0101 (SNOWMAN)

(XX.XXMM STICK OUT)

(POSTED USING CUSTOM POST PROCESSOR WRITTEN BY CONNOR PHILPOTT)
(COPYRIGHT C 2017 BY CONNOR PHILPOTT)

(MACHINE SETUP)
(COLCHESTER)
(T6M)
(COLCHESTER MILL-TURN LATHE - FANUC 21I CONTROL)

(PROGRAM TOOL DATA)
(T0707 D=0. CR=0. - ZMIN=-44.65 - GENERAL TURNING)
(T0909 D=0. CR=0. - ZMIN=-16.233 - GROOVE TURNING)
(T1111 D=0. CR=0. - ZMIN=-45.25 - GROOVE TURNING)

(START MAIN PROGRAM)

G21

(TURNING FACE1)
G0 G28 U0.
G28 W0.
M91

G99 G18 M110
T0707
M8
G97 S2500 M4 P11
G0 Z0.
X50.
Z1.164
X30.
G1 X22.828 F0.12
X20. Z-0.25
X-0.8
X2.028 Z1.164
G0 X50.

(TURNING PROFILE1)
G1 X50. Z1.154 F4.8
G0 X22.335
G1 X21.828 F0.12
X19. Z-0.26
Z-44.65
X19.98
X22.808 Z-43.236
G0 Z1.154
X20.828
G1 X18. Z-0.26
Z-33.968
G3 X18.5 Z-36.15 I-9.4 K-2.182
X18. Z-38.332 I-9.65 K0.
G1 Z-44.65
X19.
X21.828 Z-43.236
G0 Z1.154
X19.828
G1 X17. Z-0.26
Z-32.42
G3 X18.5 Z-36.13 I-8.9 K-3.73
G1 X21.328 Z-34.716
G0 Z1.154
X18.828
G1 X16. Z-0.26
Z-31.4
G3 X17.5 Z-33.084 I-8.4 K-4.75
G1 X20.328 Z-31.67
G0 Z1.154
X17.828
G1 X15. Z-0.26
Z-30.608
G3 X16.5 Z-31.872 I-7.9 K-5.542
G1 X19.328 Z-30.458
G0 Z1.154
X16.828
G1 X14. Z-0.26
Z-7.731
X14.119 Z-7.79
G3 X14.5 Z-8.25 I-0.46 K-0.46
G1 Z-10.05
G3 X14.119 Z-10.51 I-0.65 K0.
G1 X14. Z-10.569
Z-21.71
G3 X14.5 Z-23.65 I-7.4 K-1.94
X14. Z-25.59 I-7.65 K0.
G1 Z-29.956
G3 X15.5 Z-30.983 I-7.4 K-6.194
G1 X18.328 Z-29.568
G0 Z1.154
X15.828
G1 X13. Z-0.26
Z-7.5
G3 X13.919 Z-7.69 I0. K-0.65
G1 X14.119 Z-7.79
G3 X14.5 Z-8.247 I-0.46 K-0.46
G1 X17.328 Z-6.833
G0 Z1.154
X14.828
G1 X12. Z-0.26
Z-7.5
X13.
G3 X13.5 Z-7.55 I0. K-0.65
G1 X16.328 Z-6.136
G0 Z1.154
X13.848
G1 X11.019 Z-0.26
Z-7.5
X12.5
X15.328 Z-6.086
G0 Z1.154
X12.887
G1 X10.058 Z-0.26
X10.119 Z-0.29
G3 X10.5 Z-0.75 I-0.46 K-0.46
G1 Z-7.5
X11.519
X14.348 Z-6.086
X14.7
G0 Z-10.569
G1 X14.
X13.919 Z-10.61
G3 X13.836 Z-10.648 I-0.46 K0.46
G1 X13. Z-10.999
Z-20.347
G3 X14.5 Z-23.65 I-6.9 K-3.303
G1 X17.328 Z-22.236
G0 Z-10.999
G1 X13.
X12. Z-11.418
Z-19.459
G3 X13.5 Z-20.93 I-6.4 K-4.191
G1 X16.328 Z-19.515
G0 Z-11.418
G1 X12.
X11. Z-11.838
Z-18.78
G3 X12.5 Z-19.868 I-5.9 K-4.87
G1 X15.328 Z-18.454
G0 Z-11.838
G1 X11.
X10. Z-12.257
Z-18.231
G3 X11.5 Z-19.1 I-5.4 K-5.419
G1 X14.328 Z-17.686
G0 Z-12.257
G1 X10.
X9.166 Z-12.607
X9.13 Z-12.724
G3 X9.116 Z-12.76 I-0.642 K0.1
G1 X9. Z-13.029
Z-17.775
G3 X10.5 Z-18.492 I-4.9 K-5.875
G1 X13.328 Z-17.078
G0 Z-11.615
G1 X11.828
X9. Z-13.029
X8.863 Z-13.346
G3 X8.845 Z-13.384 I-0.635 K0.137
G1 X8.505 Z-13.991
G3 X8.481 Z-14.03 I-0.626 K0.175
G1 X8.068 Z-14.623
G3 X8.038 Z-14.661 I-0.614 K0.214
G1 X8. Z-14.707
Z-17.392
G3 X9.5 Z-17.993 I-4.4 K-6.258
G1 X12.328 Z-16.579
G0 Z-13.292
G1 X10.828
X8. Z-14.707
X7.551 Z-15.239
G3 X7.517 Z-15.277 I-0.599 K0.252
G1 X7. Z-15.796
Z-17.069
G3 X8.5 Z-17.575 I-3.9 K-6.581
G1 X11.328 Z-16.161
G0 Z-14.382
G1 X9.828
X7. Z-15.796
X6.956 Z-15.84
G3 X6.918 Z-15.876 I-0.582 K0.29
G1 X6.422 Z-16.305
Z-16.906
G3 X7.5 Z-17.223 I-3.611 K-6.744
G1 X10.328 Z-15.809
G0 Z-14.891
G1 X9.25
X6.422 Z-16.305
X6.284 Z-16.424
G3 X6.242 Z-16.458 I-0.563 K0.325
G1 X5.844 Z-16.759
G3 X6.922 Z-17.046 I-3.322 K-6.891
G1 X9.75 Z-15.631
X11.561
G0 X16.828
Z-24.176
G1 X14. Z-25.59
G3 X13. Z-26.953 I-7.4 K1.94
G1 Z-29.404
G3 X14.5 Z-30.268 I-6.9 K-6.746
G1 X17.328 Z-28.854
G0 Z-25.539
G1 X15.828
X13. Z-26.953
G3 X12.003 Z-27.838 I-6.9 K3.303
G1 Z-28.929
G3 X13.5 Z-29.669 I-6.401 K-7.221
G1 X16.328 Z-28.255
G0 Z-26.424
G1 X14.831
X12.003 Z-27.838
G3 X11.006 Z-28.516 I-6.401 K4.188
X12.503 Z-29.158 I-5.903 K-7.634
G1 X15.331 Z-27.744
X16.676
G0 X20.828
Z-36.918
G1 X18. Z-38.332
G3 X17. Z-39.88 I-9.4 K2.182
G1 Z-44.65
X18.
X20.828 Z-43.236
G0 Z-38.466
G1 X19.828
X17. Z-39.88
G3 X16. Z-40.9 I-8.9 K3.73
G1 Z-44.65
X17.
X19.828 Z-43.236
G0 Z-39.486
G1 X18.828
X16. Z-40.9
G3 X15. Z-41.692 I-8.4 K4.75
G1 Z-44.65
X16.
X18.828 Z-43.236
G0 Z-40.278
G1 X17.828
X15. Z-41.692
G3 X14. Z-42.344 I-7.9 K5.542
G1 Z-44.65
X15.
X17.828 Z-43.236
G0 Z-40.93
G1 X16.828
X14. Z-42.344
G3 X13. Z-42.896 I-7.4 K6.194
G1 Z-44.65
X14.
X16.828 Z-43.236
G0 Z-41.482
G1 X15.828
X13. Z-42.896
G3 X12.549 Z-43.119 I-6.9 K6.746
X12.486 Z-43.148 I-0.45 K0.469
G1 X12. Z-43.352
Z-44.65
X13.
X15.828 Z-43.236
G0 Z-43.352
G1 X12.
X11. Z-43.771
Z-44.65
X12.
X14.828 Z-43.236
G0 Z-43.771
G1 X11.
X10. Z-44.191
Z-44.65
X11.
X13.828 Z-43.236
G0 Z-44.191
G1 X10.
X9.453 Z-44.42
Z-44.65
X10.
X12.828 Z-43.236
G0 Z-44.42
G1 X9.453
X8.905 Z-44.65
X9.453
X12.281 Z-43.236
X17.059
G0 X18.7
Z1.047
X12.394
G1 X9.566 Z-0.367
X9.766 Z-0.467
G3 X10. Z-0.75 I-0.283 K-0.283
G1 Z-7.75
X13.
G3 X13.566 Z-7.867 I0. K-0.4
G1 X13.766 Z-7.967
G3 X14. Z-8.25 I-0.283 K-0.283
G1 Z-10.05
G3 X13.766 Z-10.333 I-0.4 K0.
G1 X13.566 Z-10.433
G3 X13.514 Z-10.456 I-0.283 K0.283
G1 X8.701 Z-12.476
X8.636 Z-12.685
G3 X8.627 Z-12.708 I-0.395 K0.062
G1 X8.375 Z-13.293
G3 X8.363 Z-13.317 I-0.391 K0.084
G1 X8.024 Z-13.924
G3 X8.009 Z-13.948 I-0.385 K0.108
G1 X7.595 Z-14.541
G3 X7.577 Z-14.564 I-0.378 K0.132
G1 X7.09 Z-15.142
G3 X7.069 Z-15.165 I-0.369 K0.155
G1 X6.509 Z-15.729
G3 X6.485 Z-15.751 I-0.358 K0.178
G1 X5.851 Z-16.299
G3 X5.825 Z-16.32 I-0.346 K0.2
G1 X5.117 Z-16.854
G3 X5.104 Z-16.864 I-0.334 K0.221
X10.28 Z-28.556 I-2.952 K-6.786
X12.203 Z-42.939 I-5.54 K-7.594
X12.164 Z-42.956 I-0.277 K0.289
G1 X8.127 Z-44.65
X14.35
G0 X50.
Z0.
M9
G28 U0.
G28 W0.
M1
M1

(TURNING PROFILE GROOVE1)
G0 G28 U0.
G28 W0.
M91

G99 G18 M110
T0909
M8
G97 S1000 M4 P11
G0 Z0.
X50.
Z-15.432
X18.
G1 X14. F0.06
X10.873
X18.
G0 Z-16.233
G1 X14.
X10.655
X13.987
X14.
X17.98
G0 X17.981
Z-14.545
G1 X14. Z-14.741
G3 X13.72 Z-14.75 I-0.14 K1.031
G1 X10.976
X10.952 Z-15.019
G3 X10.943 Z-15.075 I-1.039 K0.047
G1 X10.822 Z-15.687
G3 X10.807 Z-15.745 I-1.035 K0.103
G1 X10.655 Z-16.233
X13.953
Z-13.65
X13.777 Z-13.738
G3 X13.72 Z-13.75 I-0.028 K0.028
G1 X9.01
Z-14.348
Z-14.35
X8.954 Z-14.974
X8.953 Z-14.977
X8.832 Z-15.588
X8.831 Z-15.591
X8.644 Z-16.189
X8.643 Z-16.192
X8.625 Z-16.233
X11.454 Z-14.819
X12.48
G0 X50.
Z0.
M9
G28 U0.
G28 W0.
M1
M1

(TURNING PART1)
G0 G28 U0.
G28 W0.
M91

G99 G18 M110
T1111
M8
M34 (PART CATCHER ON)
G97 S2500 M3 P11
G0 Z0.
X50.
Z-45.25
X30.
G1 X-1.6 F0.1
X30.
G0 X50.
Z0.
M9
M35 (PART CATCHER OFF)
M5 P11

G0 G28 U0.
G28 W0.
M110


M30
%
