%
O0123 (VICE HANDLE)

(80.2MM STICK OUT)

(POSTED USING CUSTOM POST PROCESSOR WRITTEN BY CONNOR PHILPOTT)
(COPYRIGHT C 2017 BY CONNOR PHILPOTT)

(MACHINE SETUP)
(COLCHESTER)
(T6M)
(COLCHESTER MILL-TURN LATHE - FANUC 21I CONTROL)

(START MAIN PROGRAM)
G21
G95

(TURNING FACING)
G0 G28 U0.
G28 W0.
M91
G99 G18
T0505
M8
G97 S2500 M4 P11
G0 Z0.
X62.
Z1.164
X42.
G1 X34.828 F0.12
X32. Z-0.25
X-0.8
X2.028 Z1.164
G0 X62.

(TURNING PROFILE)
G1 X62. Z1.154 F4.8
G0 X34.335
G1 X32.828 F0.12
X30. Z-0.26
Z-30.857
G3 X31.982 Z-33.367 I-3.4 K-2.793
G1 X34.81 Z-31.952
G0 Z1.154
X30.828
G1 X28. Z-0.26
Z-29.962
G3 X31. Z-31.613 I-2.4 K-3.688
G1 X33.828 Z-30.199
G0 Z1.154
X28.828
G1 X26. Z-0.26
Z-29.479
G3 X29. Z-30.341 I-1.4 K-4.171
G1 X31.828 Z-28.927
G0 Z1.154
X26.828
G1 X24. Z-0.26
Z-29.268
G3 X27. Z-29.681 I-0.4 K-4.382
G1 X29.828 Z-28.267
G0 Z1.154
X24.828
G1 X22. Z-0.26
Z-2.415
Z-2.418
Z-10.55
Z-10.552
Z-20.748
Z-20.75
Z-29.25
X23.2
G3 X25. Z-29.343 I0. K-4.4
G1 X27.828 Z-27.929
G0 Z1.154
X22.828
G1 X20. Z-0.26
Z-0.838
X21.18 Z-1.428
G3 X22. Z-2.415 I-0.99 K-0.99
G1 Z-2.418
X24.828 Z-1.004
X25.382
G0 X34.81
Z-46.518
G1 X31.982 Z-47.933
G3 X30.949 Z-49.736 I-4.391 K0.283
G1 Z-50.65
X31.98
X34.808 Z-49.236
G0 Z-48.321
G1 X33.777
X30.949 Z-49.736
G3 X30.821 Z-49.85 I-3.874 K2.086
G1 X29.897 Z-50.65
X30.949
X33.777 Z-49.236
G0 Z-17.929
X22.828
G1 X20. Z-19.343
Z-30.25
X23.2
G3 X30. Z-33.65 I0. K-3.4
G1 Z-47.65
G3 X29.089 Z-49.35 I-3.4 K0.
G1 X27.588 Z-50.65
X30.416 Z-49.236
X32.182
G0 Z-9.138
X26.
G1 X24.828
X22. Z-10.552
G3 X21.625 Z-11.25 I-1.4 K0.002
G1 X20. Z-12.657
Z-19.342
G3 X20.98 Z-19.66 I-0.5 K-1.308
G1 X21.18 Z-19.76
G3 X22. Z-20.748 I-0.99 K-0.99
G1 Z-20.75
X24.828 Z-19.336
G0 Z0.576
X22.828
G1 X20. Z-0.838
Z-12.657
X22.828 Z-11.243
X23.794
G0 X62.
G1 X62. Z1.154 F4.8
G0 X22.335
G1 X21.673 F0.12
X18.844 Z-0.26
X19.98 Z-0.828
X22.808 Z0.586
G0 Z1.047
X19.059
G1 X16.23 Z-0.367
X19.766 Z-2.135
G3 X19.982 Z-2.332 I-0.283 K-0.283
G1 X22.81 Z-0.918
X22.947
G0 X62.
Z0.
M9
G28 U0.
G28 W0.
M110
M1

(GROOVING FRONT)
G0 G28 U0.
G28 W0.
M91
G99 G18
T0909
M8
G97 S1000 M4 P11
G0 Z0.
X50.
Z-17.199
X24.
G1 X20. F0.06
X13.8
X24.
G0 Z-19.329
G1 X20.
X19.332
X20.
X23.98
G0 X23.982
Z-13.878
X23.98
G1 X23.213
X20. Z-15.069
X19.332 Z-15.171
G3 X18.28 Z-15.25 I-0.526 K1.721
G1 X13.8
Z-17.25
X16.628 Z-15.836
X23.16
G0 Z-19.909
G1 X19.332 Z-19.329
G2 X18.28 Z-19.25 I-0.526 K-1.721
G1 X13.8
Z-17.25
X16.628 Z-18.664
X23.751
G0 X24.002
Z-13.516
X23.98
G1 X22.654
X18.888 Z-14.19
G3 X18.28 Z-14.25 I-0.304 K0.74
G1 X11.8
Z-17.25
X14.628 Z-15.836
X22.249
G0 X23.982
Z-20.984
X23.98
G1 X22.654
X18.888 Z-20.31
G2 X18.28 Z-20.25 I-0.304 K-0.74
G1 X11.8
Z-17.25
X14.628 Z-18.664
X15.8
G0 X50.

(GROOVING BACK)
G0 Z-51.25
X62.
X36.
G1 X32. F0.06
X31.866
X36.
G0 Z-55.25
G1 X32.
X22.4
X31.887
X32.
X35.98
G0 X35.982
Z-49.836
X35.98
G1 X34.694
X31.866 Z-51.25
G3 X22.4 Z-55.25 I-4.733 K0.8
G1 X26.4
X35.98
G0 X35.982
Z-49.836
X35.98
G1 X32.658
X29.83 Z-51.25
G3 X22.4 Z-54.25 I-3.715 K0.8
G1 X19.98
X23.98
G0 X62.
Z0.
M9
G28 U0.
G28 W0.
M110
M1

(MILLING)
G0 G28 U0.
G28 W0.
T1010
G94 (FEED PER MIN)
M109
G28 C0.
G97 S1200 M13
G0 Z20. X42.
G0 C0. M31
Z-25.
G1 Z-55. F200
Z-28.
G0 Z5.
C60. M31
Z-25.
G1 Z-55 F200
Z-28.
G0 Z5.
C120. M31
Z-25.
G1 Z-55. F200
Z-28.
G0 Z5.
C180. M31
Z-25.
G1 Z-55. F200
Z-28.
G0 Z5.
C240. M31
Z-25.
G1 Z-55. F200
Z-28.
G0 Z5.
C300. M31
Z-25.
G1 Z-55. F200
Z-28.
G0 Z5.
M5
M9
G28 U0.
G28 W0.
G28 C0.
M110
G95 (FEED PER RPM)
M1

(SPOT DRILL)
G0 G28 U0.
G28 W0.
M91
G98 G18
T0202
M8
G97 S1500 M3 P11
G0 Z10.
X0.
G80
G0 Z5.
G83 Z-4.25 R-0.25 F0.1
G80
G0 Z10.
M9
G28 U0.
G28 W0.
M110
M1

(PECK DRILL)
G0 G28 U0.
G28 W0.
M91
G98 G18
T1212
M8
G97 S1000 M3 P11
G0 Z20.
X0.
G0 Z5.
G74 R5.
G74 Z-55.25 Q10000 F0.07
G0 Z20.
M9
G28 U0.
G28 W0.
M110
M1

(TAP)
G0 G28 U0.
G28 W0.
M91
G99 G18
T0808
M8
G0 Z10.
X0.
G0 Z5.
G97 S850 P11 F1.25
M8
G1 Z-25. F1.25
M4
G1 Z30. F1.25
M9
G28 U0.
G28 W0.
M110
M1

(PARTING)
G0 G28 U0.
G28 W0.
M91
G99 G18
T1111
M8
G97 S2500 M3 P11
G0 Z0.
X52.
Z-53.25
X42.
G1 X30. F0.1
X10.
G97 S1000 M3 P11
M34 (PART CATCHER ON)
G1 X-5. F0.05
M35 (PART CATCHER OFF)
G0 X52.
Z0.
M9
M5 P11
G0 G28 U0.
G28 W0.
M1

(FACING OFF BAR)
G0 G28 U0.
G28 W0.
M91
G99 G18
T0101
G97 S2500 M14
G0 X42. Z-55.25
G1 X34.828 F0.12
X32.
X-0.8
Z-54.25
G0 X42.
Z0.
M9
G28 U0.
G28 W0.
M110

M30
%
