%
O0124 (GUIDE BAR)

(POSTED USING CUSTOM POST PROCESSOR WRITTEN BY CONNOR PHILPOTT)
(COPYRIGHT C 2017 BY CONNOR PHILPOTT)

(MACHINE SETUP)
(COLCHESTER)
(T6M)
(COLCHESTER MILL-TURN LATHE - FANUC 21I CONTROL)

(PROGRAM TOOL DATA)
(T0303 D=0. CR=0. - ZMIN=-9.75 - THREAD TURNING)
(T0505 D=0. CR=0. - ZMIN=-18.565 - GENERAL TURNING)

(START MAIN PROGRAM)

G21

(TURNING FACE)
G0 G28 U0.
G28 W0.
M91
G99 G18 
T0505
M8
G97 S2500 M4 P11
G0 Z0.
X40.
Z1.164
X20.
G1 X12.828 F0.12
X10. Z-0.25
X-0.8
X2.028 Z1.164
G0 X40.

(TURNING ROUGH)
G1 X40. Z1.154 F4.8
G0 X12.335
G1 X10.948 F0.12
X8.119 Z-0.26
Z-1.19
G3 X8.5 Z-1.65 I-0.46 K-0.46
G1 Z-17.65
G3 X8.326 Z-17.975 I-0.65 K0.
G1 X8.297 Z-18.
X9.2
G3 X9.981 Z-18.13 I0. K-0.65
G1 X12.809 Z-16.716
G0 Z1.154
X9.087
G1 X6.258 Z-0.26
X8.119 Z-1.19
G3 X8.5 Z-1.65 I-0.46 K-0.46
G1 X11.328 Z-0.236
X11.681
G0 X40.

(TURNING FINISH)
G1 X40. Z1.154 F4.8
G0 X12.335
G1 X11.208 F0.06
X8.38 Z-0.26
X9.18 Z-0.66
G3 X9.982 Z-1.49 I-0.99 K-0.99
G1 X12.81 Z-0.076
G0 Z1.047
X8.594
G1 X5.766 Z-0.367
X7.766 Z-1.367
G3 X8. Z-1.65 I-0.283 K-0.283
G1 Z-17.65
G3 X7.893 Z-17.85 I-0.4 K0.
G1 X7.6 Z-18.104
Z-18.25
X9.2
G3 X9.982 Z-18.565 I0. K-0.4
G1 X12.81 Z-17.15
X12.947
G0 X40.
Z0.
M9
G28 U0.
G28 W0.
M110
M1

(TURNING THREAD)
G0 G28 U0.
G28 W0.
M91
G99 G18 
T0303
M8
G97 S1000 M3 P11
G0 Z0.
X40.
Z0.75
X20.
G1 X7.882 F1.25
G33 Z-9.75 F1.25
X9.65 F1.25
G0 X20.
Z0.75
G1 X7.764 F1.25
G33 Z-9.75 F1.25
X9.65 F1.25
G0 X20.
Z0.75
G1 X7.646 F1.25
G33 Z-9.75 F1.25
X9.65 F1.25
G0 X20.
Z0.75
G1 X7.529 F1.25
G33 Z-9.75 F1.25
X9.65 F1.25
G0 X20.
Z0.75
G1 X7.411 F1.25
G33 Z-9.75 F1.25
X9.65 F1.25
G0 X20.
Z0.75
G1 X7.293 F1.25
G33 Z-9.75 F1.25
X9.65 F1.25
G0 X20.
Z0.75
G1 X7.175 F1.25
G33 Z-9.75 F1.25
X9.65 F1.25
G0 X20.
Z0.75
G1 X7.057 F1.25
G33 Z-9.75 F1.25
X9.65 F1.25
G0 X20.
Z0.75
G1 X6.939 F1.25
G33 Z-9.75 F1.25
X9.65 F1.25
G0 X20.
Z0.75
G1 X6.821 F1.25
G33 Z-9.75 F1.25
X9.65 F1.25
G0 X20.
Z0.75
G1 X6.704 F1.25
G33 Z-9.75 F1.25
X9.65 F1.25
G0 X20.
Z0.75
G1 X6.586 F1.25
G33 Z-9.75 F1.25
X9.65 F1.25
G0 X20.
Z0.75
G1 X6.468 F1.25
G33 Z-9.75 F1.25
X9.65 F1.25
G0 X20.
Z0.75
G1 X6.35 F1.25
G33 Z-9.75 F1.25
X9.65 F1.25
G0 X20.
Z0.75
G1 X6.35 F1.25
G33 Z-9.75 F1.25
X9.65 F1.25
G0 X20.
X40.
Z0.
M5 P11
M9
G0 G28 U0.
G28 W0.

M30
%
