%
O1111 (CASTER PIN)

(70.20MM STICK OUT)

(POSTED USING CUSTOM POST PROCESSOR WRITTEN BY CONNOR PHILPOTT)
(COPYRIGHT C 2017 BY CONNOR PHILPOTT)

(MACHINE SETUP)
(COLCHESTER)
(T6M)
(COLCHESTER MILL-TURN LATHE - FANUC 21I CONTROL)

G21

(TURNING FACE1)
G0 G28 U0.
G28 W0.
M91
G95 G18 M110
T0505
M8
G97 S2500 M4 P11
G0 Z0.
X50.
Z1.164
X25.
G1 X22.828 F0.12
X20. Z-0.25
X-0.8
Z1.164
G0 X25.

(TURNING PROFILE1)
G1 Z1.154 F4.8
G1 X20.828 F0.12
X18. Z-0.26
Z-29.294
G3 X18.473 Z-29.464 I-0.4 K-0.806
G1 X19.98 Z-30.217
X22.808 Z-28.803
G0 Z1.154
X18.828
G1 X16. Z-0.26
Z-29.2
X17.2
G3 X18.473 Z-29.464 I0. K-0.9
G1 X19.98 Z-30.217
X22.808 Z-28.803
G0 Z1.154
X16.828
G1 X14. Z-0.26
Z-29.2
X17.2
G3 X18. Z-29.294 I0. K-0.9
G1 X20.828 Z-27.88
G0 Z1.154
X14.828
G1 X12. Z-0.26
Z-29.2
X16.
X18.828 Z-27.786
G0 Z1.154
X12.828
G1 X10.474 Z-0.26
G1 Z-29.2
X14.
X16.828 Z-27.786
G0 Z1.047
X10.828
G1 X10.594 F0.12
X7.766 Z-0.367
X9.766 Z-1.367
G3 X9.982 Z-1.565 I-0.283 K-0.283
G1 X10.
Z-29.7
X17.2
G3 X17.766 Z-29.817 I0. K-0.4
G1 X19.766 Z-30.817
G3 X19.982 Z-31.015 I-0.283 K-0.283
G1 X22.81 Z-29.6
G0 X50.
Z0.
M9
G28 U0.
G28 W0.
M1

(GROOVING)
G0 G28 U0.
G28 W0.
M91
G95 G18 M110
T0404
M8
G97 S2500 M3 P11
G0 Z0.
X50.
Z-7.15
X15.
G1 X10.6 Z-7.15 F0.06
G1 X9.6 Z-8.15
G1 X6.8
G1 X10.5
G1 Z-9.35
G1 X9.6 Z-8.35
G1 X6.8
G1 X10.2
G0 X50.
M9
G28 U0.
G28 W0.
M1

(BACK CHAMFER)
G0 G28 U0.
G28 W0.
M91
G95 G18 M110
T1111
M8
G97 S2500 M3 P11
G0 Z0.
X50.
Z-50.75
X25.
G1 X9.0 F0.08
X21.
(PARTING OFF)
G97 S1000 M3 P11
G1 Z-49.75 F0.08
G1 X20. F0.08
G1 X19. Z-50.75
M34 (PART CATCHER OPEN)
G1 X-1.6 F0.04
M35 (PART CATCHER CLOSE)
G1 Z-50.5
G0 Z-45.
G0 X50.
Z0.
M9
M5 P11
G0 G28 U0.
G28 W0.
M110
M30
%
